!!!OTL: Quartett in B für 2 Violinen, Viola und Violoncello, 1. Satz, KV 458/01
!!!system-decoration: [(s1,s2,s3,s4)]
**kern	**kern	**kern	**kern	**kern	**kern	**kern	**kern	**kern	**kern	**kern	**kern	**kern	**kern	**kern	**kern
*part4	*part4	*part4	*part4	*part3	*part3	*part3	*part3	*part2	*part2	*part2	*part2	*part1	*part1	*part1	*part1
*staff16	*staff15	*staff14	*staff13	*staff12	*staff11	*staff10	*staff9	*staff8	*staff7	*staff6	*staff5	*staff4	*staff3	*staff2	*staff1
*I"Violoncello	*	*	*	*I"Viola	*	*	*	*I"Violino II	*	*	*	*I"Violino I	*	*	*
*clefF4	*clefC3	*clefG2	*clefG2
*k[b-e-]	*k[b-e-]	*k[b-e-]	*k[b-e-]
*M6/8	*M6/8	*M6/8	*M6/8
8r	8r	8dd	8ff
=1	=1	=1	=1
4B-y	4b-y	(8ddL	(8ffL
.	.	8b-y)	8dd)
8r	8f	8b-yJ	8ddJ
4BB-y	(8fL	(8b-yL	(8ddL
.	8d)	8f)	8b-y)
8r	8dJ	8fJ	8b-yJ
=2	=2	=2	=2
(4D	(4d	(4f	(4b-y
8BB-y)	8f)	8b-y)	8dd)
4F	4.f	4a	4cc
8D	.	8b-y	8dd
=3	=3	=3	=3
.	.	.	(<8qff
4C	8.gL	4cc	8.ee-yL)
.	16f	.	16dd
8r	8e-yJ	8r	8ccJ
(8E-yL	4e-y	4.c	(8gL
8C	.	.	8b-y
8FJ)	8c	.	8aJ)
=4	=4	=4	=4
(4D	(8B-yL	(4f	(4b-y
.	8d	.	.
8BB-y)	8fJ)	8b-y)	8dd)
4F	4f	4a	4cc
8r	8r	8dd	8ff
=5	=5	=5	=5
4B-y	4b-y	(16ddL	(16ffL
.	.	16ee-y	16gg
.	.	8dd)	8ff)
8r	8f	8b-yJ	8ddJ
4BB-y	(16fL	(16b-yL	(16ddL
.	16g	16cc	16ee-y
.	8f)	8b-y)	8dd)
8r	8dJ	8fJ	8b-yJ
=6	=6	=6	=6
(4D	(4d	(4f	(4b-y
8BB-y)	8f)	8b-y)	8dd)
4F	4.f	4a	4cc
8D	.	8b-y	8dd
=7	=7	=7	=7
.	.	.	(<8qff
4C	8.gL	4cc	8.ee-yL)
.	16f	.	16dd
8r	8e-yJ	8r	8ccJ
(8E-yL	4.e-y	4.c	(8gL
8C	.	.	8b-y
8FJ)	.	.	8aJ)
=8	=8	=8	=8
8BB-yL	(4d	8B-yL	(4b-y
8BB-y	.	(16B-y	.
.	.	16A	.
8BB-yJ	8f)	16B-y	8dd)
.	.	16AJ	.
[4.BB-y	4d	4B-y)	4b-y
.	8d	8f	8r
=9	=9	=9	=9
2.BB-y_	(4e-y	(4g	2.r
.	8d)	8f)	.
.	8.cLT	8.e-yLT	.
.	16B-y	16d	.
.	8cJ	8e-yJ	.
=10	=10	=10	=10
2.BB-y]	[4.d	(8fL	4r
.	.	8a	.
.	.	8b-yJ)	8r
.	8dL]	4.f	8r
.	(8a	.	8r
.	8b-yJ)	.	8dd
=11	=11	=11	=11
2.FF	2.f	2.a 2.c	(16ee-yL
.	.	.	16ff
.	.	.	16gg)
.	.	.	16ff
.	.	.	16ee-y
.	.	.	16ddJ
.	.	.	16ccL
.	.	.	16b-y
.	.	.	16a
.	.	.	16g
.	.	.	16f
.	.	.	16e-yJ
!!LO:LB
=12	=12	=12	=12
[4.BB-y	[4.f [4.B-y	[4.b-y [4.d	16dL
.	.	.	16e-y
.	.	.	16f
.	.	.	16g
.	.	.	(16a
.	.	.	16b-yJ)
8BB-yL]	4f] 4B-y]	4b-y] 4d]	4f
8BB-y	.	.	.
8BB-yJ	8d	8f	8r
=13	=13	=13	=13
[2.BB-y	(4e-y	(4g	2.r
.	8d)	8f)	.
.	8.cLT	8.e-yLT	.
.	16B-y	16d	.
.	8cJ	8e-yJ	.
=14	=14	=14	=14
2.BB-y]	[4.d	8fL	4r
.	.	(8a	.
.	.	8b-yJ)	8r
.	8dL]	4.f	8r
.	(8a	.	8r
.	8b-yJ)	.	8dd
=15	=15	=15	=15
(2.FF	4.a	2.cc (2.e-y	(16ee-yL
.	.	.	16dd)
.	.	.	16cc
.	.	.	16b-y
.	.	.	16a
.	.	.	(16b-yJ
.	[4.f	.	16ccL
.	.	.	16dd
.	.	.	16ee-y
.	.	.	16ff
.	.	.	16gg
.	.	.	16aaJ
=16	=16	=16	=16
8BB-y)	8f]	8b-y 8d)	8bb-y)
8r	8r	8r	16r
.	.	.	(16b-yL
8r	8r	8r	16a
.	.	.	16b-yJ)
(4.F	[4.f	4.cc (4.e-y	(16ccL
.	.	.	16dd
.	.	.	16ee-y
.	.	.	16ff
.	.	.	16gg
.	.	.	16aaJ
=17	=17	=17	=17
8B-y)	8f]	8b-y 8d)	8bb-y)
8r	8r	8r	16r
.	.	.	(16b-yL
8r	8r	8r	16a
.	.	.	16b-yJ
(4.F	[4.f	(4.cc 4.e-y	16ccL
.	.	.	16dd
.	.	.	16ee-y
.	.	.	16ff
.	.	.	16gg
.	.	.	16aaJ)
=18	=18	=18	=18
8B-yL)	8fL]	8b-yL) 8d	8bb-y
8B-y	8b-y	8bb-y	8r
8B-yJ	8b-yJ	8bb-yJ	8r
8r	8r	8r	8gg
8GL	8gL	8ggL	8r
8GJ	8gJ	8ggJ	8r
=19	=19	=19	=19
8r	8r	8r	8dd
8DL	8dL	8ddL	8r
8DJ	8dJ	8ddJ	8r
8r	8r	8r	8een
8EnL	8enL	8eenL	8r
8EJ	8eJ	8eeJ	8r
=20	=20	=20	=20
[2.F	8r	8r	[2.ff
.	(8AL	(8cL	.
.	8cJ	8e-J	.
.	8B-yL	8dL	.
.	8A	8c	.
.	8GJ)	8B-yJ)	.
=21	=21	=21	=21
2.F_	(8FL	(8AL	2.ff_
.	8A	8c	.
.	8cJ	8e-yJ	.
.	8B-yL	8dL	.
.	8A	8c	.
.	8GJ)	8B-yJ)	.
=22	=22	=22	=22
8FL]	8FL	8AL	(8ffL_
8r	8r	8r	8gg
(8CJ	(8GJ	(8B-yJ	8eenJ
8FL)	8FL)	8AL)	8ffL
8r	8r	8r	8aa
(8CJ	(8GJ	(8B-yJ	8eeJ)
=23	=23	=23	=23
8FL)	8FL)	8AL)	(8ffL
8r	8r	8r	8ccc
(8cJ	(8gJ	(8b-yJ	8eenJ
8FL)	8fL)	8aL)	8ffL
8r	8r	8r	8fff
(8cJ	(8gJ	(8b-yJ	8eeJ)
!!LO:LB
=24	=24	=24	=24
8FL)	8fL)	(8a'L)	(8ff'L
(8F'	(8c'	8a'	8ff'
8F'J	8c'J	8a'J	8ff'J
8F'L	8c'L	8a'L	8ff'L
8F'	8c'	8a'	8ff'
8F'J)	8c'J)	8a'J)	8ff'J)
=25	=25	=25	=25
4F	4c	4a	4ff
8r	8r	8r	8r
4r	4r	4r	4ff
8r	8r	8r	8r
=26	=26	=26	=26
.	.	.	(<(<32qeenL
.	.	.	32qff
.	.	.	32qggJ)
2.r	4r	4r	2.ffT)
.	8r	8r	.
.	8r	8r	.
.	8r	8r	.
.	8d	8f	.
=27	=27	=27	=27
2.r	(8dL	(8fL	2.ff_
.	8B-y)	8d)	.
.	8B-yJ	8dJ	.
.	(8B-yL	(8dL	.
.	8D)	8B-y)	.
.	8DJ	8B-yJ	.
=28	=28	=28	=28
(4D	(4F	(4B-y	2.ff_
8BB-y)	8B-y)	8d)	.
4F	(4A	(4c	.
8r	8Bn)	8d)	.
=29	=29	=29	=29
2.r	(16cL	(16e-yL	2.ff_
.	16d	16f	.
.	8c)	8e-y)	.
.	8AJ	8cJ	.
.	(16AL	(16cL	.
.	16B-	16d	.
.	8A)	8c)	.
.	8CJ	8AJ	.
=30	=30	=30	=30
(4FF	(4C	((4A	(<4.ff_
8AA)	8c)	8e-y))	.
.	.	.	32qeenL
.	.	.	32qffJ)
4BB-y	4B-y	4d	4f
(8AA	(8c	(8f#	[8dd
=31	=31	=31	=31
4.GG)	4.B-y)	4.g)	8ddL_
.	.	.	16een
.	.	.	16ff#
.	.	.	16gg
.	.	.	16aaJ
(4.G	(4B-y	(4d	16bb-yL
.	.	.	16aa
.	.	.	16gg
.	.	.	16ffn
.	8g)	8b-y	16ee
.	.	.	16ddJ
=32	=32	=32	=32
4.En	4.g	4.b-y	(16ddL
.	.	.	16cc)
.	.	.	16dd
.	.	.	16een
.	.	.	16ff
.	.	.	16ggJ
4.F	[4.f	4.a)	16aaL
.	.	.	16gg
.	.	.	16ff
.	.	.	16ee
.	.	.	16dd
.	.	.	16ccJ
=33	=33	=33	=33
4.D	4.f]	(4.a_	(16ccL
.	.	.	16b-y)
.	.	.	16cc
.	.	.	16dd
.	.	.	16een
.	.	.	16ffJ
4.En)	[4.en	4.g)	16ggL
.	.	.	16ff
.	.	.	16ee
.	.	.	16dd
.	.	.	16cc
.	.	.	16b-yJ
=34	=34	=34	=34
(4.C#	4.e]	(4.g_	(16b-yL
.	.	.	16a)
.	.	.	16bn
.	.	.	16cc#
.	.	.	16dd
.	.	.	16eenJ
4.D)	4.d	4.f)	16ffL
.	.	.	16ee
.	.	.	16dd
.	.	.	16ccn
.	.	.	16b-
.	.	.	16aJ
=35	=35	=35	=35
4.BB-y	4.d	4.f	(8aL
.	.	.	8g)
.	.	.	8ddJ
.	.	(<32qb-yL	.
.	.	32qccJ	.
.	.	.	(<32qggL
.	.	.	32qaaJ
8GG'L	8B-y'L	8dd'L)	8bb-y'L)
8AA'	8c'	8cc'	8aa'
8BB-y'J	8d'J	8b-y'J	8gg'J
=36	=36	=36	=36
(4.Cn	4.c	(4a	(4ff
.	.	8g)	8een)
4.En)	(4B-y	(4g_	(8eeL_
.	.	.	8dd
.	8G)	8b-y)	8ccJ)
=37	=37	=37	=37
4.F	4.A	(8aL	(8ccL
.	.	8cc	8ff
.	.	8aJ)	8ccJ)
(8AAL	(8cL	(8aL	(8ccL
8BB-y	8d)	8g	8b-y
8BBnJ)	8dJ	8fJ)	8aJ)
=38	=38	=38	=38
(4.C	2.c	(8fL	(8aL
.	.	8enJ)	8gJ)
.	.	(<4b-y	4dd
4.En)	.	.	.
.	.	8aL	(8ccL
.	.	8gJ)	8b-yJ)
=39	=39	=39	=39
4.F	[4.c	(8gL	(8b-yL
.	.	8fJ)	8aJ)
.	.	(4a	4cc
(4A	(4c_	.	.
.	.	8gL	(8b-yL
8B-y)	8d)	8fJ)	8aJ)
=40	=40	=40	=40
(4.c	[2.c	(8fL	(8aL
.	.	8enJ)	8gJ)
.	.	(<4b-y	4dd
4.En)	.	.	.
.	.	8aL	(8ccL
.	.	8gJ)	8b-yJ)
=41	=41	=41	=41
(4.F	(4c_	(8gL	(8b-yL
.	.	8fJ)	8aJ)
.	8A)	4a	4cc
4.D)	4.F	.	.
.	.	8r	8aL
.	.	8f	8fJ
=42	=42	=42	=42
4.C	4.G	4.en	(16ccL
.	.	.	16dd
.	.	.	16cc
.	.	.	16dd
.	.	.	8ccJ)
4r	4r	8r	4r
.	.	8aL	.
8r	8r	8fJ	8r
=43	=43	=43	=43
2.r	4r	(16ccL	2.r
.	.	16dd	.
.	.	16cc	.
.	.	16dd	.
.	8r	8ccJ)	.
.	8r	4r	.
.	8AL	.	.
.	8FJ	8r	.
!!LO:LB
=44	=44	=44	=44
4r	(16cL	2.r	2.r
.	16d	.	.
.	16c	.	.
.	16d	.	.
8r	8cJ)	.	.
8r	4r	.	.
8AAL	.	.	.
8FFJ	8r	.	.
=45	=45	=45	=45
(16CL	4r	2.r	2.r
16D	.	.	.
16C	.	.	.
16D	.	.	.
8CJ)	8r	.	.
4r	(16cL	.	.
.	16d	.	.
.	16c	.	.
.	16d	.	.
8r	8cJ)	.	.
=46	=46	=46	=46
2.r	2.r	(16ccL	4r
.	.	16dd	.
.	.	16cc	.
.	.	16dd	.
.	.	8ccJ)	8r
.	.	4r	(16cccL
.	.	.	16ddd
.	.	.	16ccc
.	.	.	16ddd
.	.	8r	8cccJ)
=47	=47	=47	=47
*	*	*^	*
(4.C	2.r	(4.en	[2.G	(16b-yL
.	.	.	.	16cc
.	.	.	.	16b-y
.	.	.	.	16cc
.	.	.	.	8b-yJ)
4.D-	.	4.f	.	8r
.	.	.	.	8b-yL
.	.	.	.	8b-yJ
=48	=48	=48	=48	=48
4.C	(16B-yL	4.g	2.G_	(4ff
.	16c	.	.	.
.	16B-y	.	.	.
.	16c	.	.	.
.	8B-yJ)	.	.	8een)
4.D-)	8r	4.f	.	4r
.	8B-yL	.	.	.
.	8B-yJ	.	.	8r
*	*	*v	*v	*
=49	=49	=49	=49
(4.C	(4f	4.g	(16b-yL
.	.	.	16cc
.	.	.	16b-y
.	.	.	16cc
.	8en)	.	8b-yJ)
4.D-)	4r	4.f)	8r
.	.	.	8b-yL
.	8r	.	8b-yJ
=50	=50	=50	=50
4.C	(16B-yL	4.g	(4ff
.	16c	.	.
.	16B-y	.	.
.	16c	.	.
.	8B-yJ)	.	8een)
.	.	.	(<32qeeL
.	.	.	32qggJ
4.B-y	(4g	4.cc	(4bb-y)
.	16enL	.	16ggL
.	16gJ)	.	16eeJ)
=51	=51	=51	=51
8A	8f	8cc	(16ffL
.	.	.	16gg
8r	8r	8r	16ff
.	.	.	16gg
8r	8r	8r	8aaJ)
8B-y	8f	8b-y	(16ddL
.	.	.	16een
8r	8r	8r	16dd
.	.	.	16ee
8r	8r	8r	8ffJ)
=52	=52	=52	=52
8G	8B-y	8d	(16b-yL
.	.	.	16cc
8r	8r	8r	16b-y
.	.	.	16cc
8r	8r	8r	8ddJ)
8En	8c	8g	(16gL
.	.	.	16a
8r	8r	8r	16g
.	.	.	16a
8r	8r	8r	8b-yJ)
=53	=53	=53	=53
4.F	4.c	(8fL	(8aL
.	.	8b-y)	8dd)
.	.	8aJ	8ccJ
.	.	(<8qa	.
.	.	.	(<8qcc
8BB-yL	8dL	8g'L)	8b-yL)
8C	8c	8f'	8a
8CJ	8B-yJ	8en'J	8gJ
=54	=54	=54	=54
4FF	4A	4f	4f
8r	8r	8r	8r
4r	4r	8f'L	4r
.	.	8g'	.
8r	8r	8a'J	8r
!!LO:LB
=55	=55	=55	=55
(4En	(4B-y	(16cL	2.r
.	.	16d	.
.	.	16c	.
.	.	16d	.
8F)	8A)	8cJ)	.
4r	4r	8f'L	.
.	.	8g'	.
8r	8r	8a'J	.
=56	=56	=56	=56
(4En	(4B-y	(16cL	2.r
.	.	16d	.
.	.	16c	.
.	.	16d	.
8F)	8A)	8cJ)	.
4r	4r	8f'L	.
.	.	8g'	.
8r	8r	8a'J	.
=57	=57	=57	=57
(4En	(4B-y	(16cL	2.r
.	.	16d	.
.	.	16c	.
.	.	16d	.
8F)	8A)	8cJ)	.
(4A	(4e-	(16fL	.
.	.	16g	.
.	.	16f	.
.	.	16g	.
8B-y)	8d)	8fJ)	.
=58	=58	=58	=58
(4Bn	(4f	(16gL	2.r
.	.	16a	.
.	.	16g	.
.	.	16a	.
8c)	8en)	8gJ)	.
(4en	(4b-y	(16ccL	.
.	.	16dd	.
.	.	16cc	.
.	.	16dd	.
8f)	8a)	8ccJ)	.
=59	=59	=59	=59
4B-	8r	8r	2.r
.	8b-yL	8ddL	.
8r	8aJ	8ccJ	.
.	(<8qa	.	.
.	.	(<8qcc	.
4c	8gL)	8b-yL)	.
.	8f	8a	.
8r	8enJ	8gJ	.
=60	=60	=60	=60
4F	4f	4f	4r
8r	8r	8r	8r
4r	4r	4r	8ff'L
.	.	.	8gg'
8r	8r	8r	8aa'J
=61	=61	=61	=61
2.r	(4en	(4b-y	(16ccL
.	.	.	16dd
.	.	.	16cc
.	.	.	16dd
.	8f)	8a)	8ccJ)
.	4r	4r	8ff'L
.	.	.	8gg'
.	8r	8r	8aa'J
=62	=62	=62	=62
2.r	(4en	(4b-y	(16ccL
.	.	.	16dd
.	.	.	16cc
.	.	.	16dd
.	8f)	8a)	8ccJ)
.	4r	4r	8ff'L
.	.	.	8gg'
.	8r	8r	8aa'J
=63	=63	=63	=63
2.r	(4c#	(4g	(16aL
.	.	.	16b-y
.	.	.	16a
.	.	.	16b-y
.	8d)	8f)	8aJ)
.	(4f#	(4cc	(16ddL
.	.	.	16ee-
.	.	.	16dd
.	.	.	16ee-y
.	8g)	8b-y)	8ddJ)
=64	=64	=64	=64
(4Bn	(4fn	(16gL	(16ggL
.	.	16a	16aa
.	.	16g	16gg
.	.	16a	16aa
8c)	8en)	8gJ)	8ggJ)
(4en	(4b-y	(16ccL	(16cccL
.	.	16dd	16ddd
.	.	16cc	16ccc
.	.	16dd	16ddd
8f)	8a)	8ccJ)	8cccJ)
=65	=65	=65	=65
4B-	8r	8r	8r
.	8b-yL	8ddL	8dddL
8r	8aJ	8ccJ	8cccJ
.	(<8qa	.	.
.	.	(<8qcc	.
.	.	.	(<8qccc
4c	8gL)	8b-yL)	8bb-yL)
.	8f	8a	8aa
8r	8enJ	8gJ	8ggJ
*clefC4	*	*	*
=66	=66	=66	=66
(16fL	(16aL	4f	2.ff
16g	16b-y	.	.
16f	16a	.	.
16g	16b-y	.	.
8aJ)	8ccJ)	8r	.
(16dL	(16fL	4r	.
16en	16g	.	.
16d	16f	.	.
16e	16g	.	.
8fJ)	8aJ)	8r	.
=67	=67	=67	=67
(16B-yL	(16dL	(16gL	2.ddd
16c	16en	16a	.
16B-y	16d	16g	.
16c	16e	16a	.
8dJ)	8fJ)	8b-yJ)	.
(16GL	(16B-yL	(16enL	.
16A	16c	16f	.
16G	16B-y	16e	.
16A	16c	16f	.
8B-yJ)	8dJ)	8gJ)	.
=68	=68	=68	=68
(4En	(4g	(4bb-y	(16cccL
.	.	.	16ddd
.	.	.	16ccc
.	.	.	16ddd
8F)	8a)	8aa)	8cccJ)
.	.	(<8qaa	.
.	.	.	(<8qccc
8B-y'L	8ddL	8ggL)	8bb-yL)
8c'	8cc	8ff	8aa
8c'J	8b-yJ	8eenJ	8ggJ
*clefF4	*	*	*
=69	=69	=69	=69
(16FL	(16aL	4ff	2.ff
16G	16b-y	.	.
16F	16a	.	.
16G	16b-y	.	.
8AJ)	8ccJ)	8r	.
(16DL	(16fL	4r	.
16En	16g	.	.
16D	16f	.	.
16E	16g	.	.
8FJ)	8aJ)	8r	.
=70	=70	=70	=70
(16BB-yL	(16dL	(16gL	2.ddd
16C	16en	16a	.
16BB-y	16d	16g	.
16C	16e	16a	.
8DJ)	8fJ)	8b-yJ)	.
(16GGL	(16B-yL	(16enL	.
16AA	16c	16f	.
16GG	16B-y	16e	.
16AA	16c	16f	.
8BB-yJ)	8dJ)	8gJ)	.
=71	=71	=71	=71
(2.EEn	(2.G	(2.B-y	(2.ddd-
=72	=72	=72	=72
2.FF#)	2.A)	2.e-)	2.ccc)
=73	=73	=73	=73
(2.GG#	2.d	[2.f	(2.bbn
=74	=74	=74	=74
4.AA	(4.c	(4.f_	4.ccc
4.BBn)	4.f)	4.a-)	4.dddn)
=75	=75	=75	=75
!!Error: measure 75, staff 1 is underfilled: adding token 2.ryy at end of measure to complete its duration.
8C	8f]	8an	2.ryy
8r	8r	8r	.
8r	8r	8r	.
4r	4r	4r	.
8r	8r	8r	.
=76	=76	=76	=76
2.CC	(4.A	(4.c	(4.ff))
.	.	.	(<8qaan
.	4.B-y)	4.en)	4.gg))
!!LO:LB
=77	=77	=77	=77
[2.FF	4.A	4.f	[2.ff
.	8r	8r	.
.	8r	8r	.
.	8a	8cc	.
=78	=78	=78	=78
2.FF_	(4b-y	(4dd	2.ff_
.	8a)	8cc)	.
.	8.gLT	8.b-yLT	.
.	16f	16a	.
.	8gJ	8b-yJ	.
=79	=79	=79	=79
4.FF_	(4g#	(4bn	4.ff_
.	8a)	8cc)	.
(4FF_	(4f	(4a	(4ff_
8AA)	8c)	8e-)	8ff#)
=80	=80	=80	=80
(4.BB-y	(4.B-y	(4.d	(4gg
.	.	.	8ffn)
4.C)	4.G)	4.B-y)	8.eenLT
.	.	.	16dd
.	.	.	8eeJ
=81	=81	=81	=81
[2.F	4.F	4.A	(8ffL
.	.	.	8aa
.	.	.	8cccJ)
.	8r	8r	[4.ff
.	8r	8r	.
.	8a	8cc#	.
=82	=82	=82	=82
2.F_	(4b-y	(4dd	2.ff_
.	8a)	8ccn)	.
.	8.gLT	8.b-yLT	.
.	16f	16a	.
.	8gJ	8b-yJ	.
=83	=83	=83	=83
(4F_	(4g#	(4bn	(4.ff_
8E-)	8a)	8cc)	.
.	(<32qaL	.	.
.	32qb-yJ	.	.
.	.	(<32qccL	.
.	.	32qddJ	.
4.D	8.ccL)	8.ee-L)	4.ff#)
.	16b-y	16dd	.
.	8aJ	8ccJ	.
=84	=84	=84	=84
4G	4g	4b-	(8ggL
.	.	.	8bb-y
8r	8r	8r	8dddJ)
4C	4g	4b-y	(8dddL
.	.	.	8ccc
8r	8r	8r	8eenJ)
=85	=85	=85	=85
4F	4f	4a	4ff
8r	8r	8r	8r
4f	4cc	4aa	4fff
8r	8r	8r	8r
=86	=86	=86	=86
4f	4cc	4aa	4fff
8r	8r	8r	8r
8r	8r	8r	8r
8r	8r	8r	8r
!!LO:LB
=:|!	=:|!	=:|!	=:|!
8r	8r	8r	8cc
=87	=87	=87	=87
[2.FF	[4.A	[2.c	[4.cc
.	(8AL_	.	(8ccL_
.	8F	.	8a
.	8AJ)	.	8ffJ)
=88	=88	=88	=88
2.FF]	[4.A	2.c_	[4.cc
.	(8AL_	.	(8ccL_
.	8c	.	8a
.	8AJ)	.	8fJ)
=89	=89	=89	=89
[2.C	(8B-yL	2.c_	(8enL
.	8G	.	8g
.	8EnJ)	.	8b-yJ)
.	8EL	.	8b-yL
.	8E	.	8b-y
.	8EJ	.	8b-yJ
=90	=90	=90	=90
(4.C_	(4.En	2.c_	(4.b-y
8FF)	4F)	.	4a)
8r	.	.	.
8r	8A	.	8cc
=91	=91	=91	=91
[2.FF	[4.A	2.c_	[4.cc
.	(8AL_	.	(8ccL_
.	8F	.	8a
.	8AJ)	.	8ffJ)
=92	=92	=92	=92
2.FF]	[4.A	2.c_	[4.cc
.	(8AL_	.	(8ccL_
.	8c	.	8a
.	8AJ)	.	8fJ)
=93	=93	=93	=93
.	.	.	(<8qcc
2.CC	[4.G	2.c_	4.b-y)
.	(8GL_	.	(8b-yL_
.	8B-y	.	8g
.	8GJ)	.	8enJ)
=94	=94	=94	=94
4FF	4A	4c]	8fL
.	.	.	(8f
8r	8r	8r	8aJ
4r	4r	4r	8ccL
.	.	.	8ff
8r	8r	8r	8aaJ)
=95	=95	=95	=95
[2.F	[2.f	(8aL	[4.ccc
.	.	8c	.
.	.	8fJ	.
.	.	8aL	(8cccL_
.	.	8f	8aa
.	.	8ccJ)	8fffJ)
=96	=96	=96	=96
2.F]	4.f_	(8aL	[4.ccc
.	.	8c	.
.	.	8fJ	.
.	4f]	8aL	(8cccL_
.	.	8cc	8aa
.	8F	8aJ)	8ffJ)
=97	=97	=97	=97
(8CL	(8GL	(8b-yL	(8eenL
8En	8B-y	8g	8gg
8GJ)	8cJ)	8enJ)	8bb-yJ)
8cL	8gL	8eL	8bb-yL
8c	8g	8e	8bb-y
8cJ	8gJ	8eJ	8bb-yJ
=98	=98	=98	=98
(4.c	(4.g	(8enL	(4.bb-y
.	.	8d	.
.	.	8eJ	.
8F)	8f)	8fL	4aa)
8r	8r	8c	.
8r	8r	8aJ)	8ccc
=99	=99	=99	=99
[2.F	[2.f	(8aL	[4.ccc
.	.	8c	.
.	.	8fJ	.
.	.	8aL	(8cccL_
.	.	8f	8aa
.	.	8ccJ)	8fffJ)
=100	=100	=100	=100
2.F]	4.f_	(8aL	[4.ccc
.	.	8c	.
.	.	8fJ	.
.	4f]	8aL	(8cccL_
.	.	8cc	8aa
.	8F	8aJ)	8ffJ)
=101	=101	=101	=101
!!Error: measure 105, staff 4 is underfilled: adding token 4.ryy at end of measure to complete its duration.
.	.	.	(<8qccc
(8CL	(8GL	(8enL	4.bb-y)
8En	8B-y	8g	.
8GJ)	8cJ)	8eJ)	.
4.ryy	8enL	(8gL	(8bb-yL_
.	(8e	8b-y)	8gg
.	8gJ)	8b-yJ	8eenJ)
=102	=102	=102	=102
8FL	8fL	8a-L	4ff
8F	8A-	8c	.
8FJ	8A-yJ	8cJ	8r
8F	8A-y	8c	8r
8r	8r	8r	(16fL
.	.	.	16en
8r	8r	8r	16g
.	.	.	16fJ)
=103	=103	=103	=103
8r	8r	8r	8a-
8FL	8cL	8fL	8r
8FJ	8cJ	8fJ	8r
8F	8c	8f	8r
8r	8r	8r	(16a-yL
.	.	.	16g
8r	8r	8r	16b-y
.	.	.	16a-yJ)
=104	=104	=104	=104
8r	8r	8r	8cc
8FL	8fL	8a-L	8r
8FJ	8fJ	8a-yJ	8r
8F	8f	8a-y	8r
8r	8r	8r	(16ffL
.	.	.	16een
8r	8r	8r	16gg
.	.	.	16ffJ)
=105	=105	=105	=105
8r	8r	8r	(4.aa-
8FL	8fL	8ccL	.
8FJ	8fJ	8ccJ	.
8r	8r	8r	4.cc)
8A-L	8cL	8fL	.
8A-yJ	8cJ	8fJ	.
=106	=106	=106	=106
8r	8r	8r	4bn
8GL	8dL	8fL	.
8GJ	8dJ	8fJ	8r
8G	8d	8f	8r
8r	8r	8r	(16bL
.	.	.	16a
8r	8r	8r	16cc
.	.	.	16bJ
=107	=107	=107	=107
8r	8r	8r	8dd)
8GL	8fL	8bnL	8r
8GJ	8fJ	8bJ	8r
8G	8f	8b	8r
8r	8r	8r	(16ddL
.	.	.	16cc
8r	8r	8r	16ee-y
.	.	.	16ddJ
=108	=108	=108	=108
8r	8r	8r	8ff)
8GL	8bnL	8ddL	8r
8GJ	8bJ	8ddJ	8r
8G	8b	8dd	8r
8r	8r	8r	(16bbnL
.	.	.	16aa
8r	8r	8r	16ccc
.	.	.	16bbJ)
=109	=109	=109	=109
8r	8r	8r	(4.ddd
8GL	8bnL	8ffL	.
8GJ	8bJ	8ffJ	.
8r	8r	8r	4.ff)
8GL	8bL	8ddL	.
8GJ	8bJ	8ddJ	.
=110	=110	=110	=110
8r	8r	8r	4ee-y
8CL	(16E-yL	(16cL	.
.	16D	16Bn	.
8CJ	16F	16d	8r
.	16E-yJ	16cJ	.
8C	8G)	8e-y)	8r
8r	8r	8r	(16e-yL
.	.	.	16d
8r	8r	8r	16f
.	.	.	16e-yJ
!!LO:LB
=111	=111	=111	=111
8r	8r	8r	8g)
8CL	(16cL	(16e-yL	8r
.	16Bn	16d	.
8CJ	16d	16f	8r
.	16cJ	16e-yJ	.
8C	8e-y)	8g)	8r
8r	8r	8r	(16ccL
.	.	.	16bn
8r	8r	8r	16dd
.	.	.	16ccJ
=112	=112	=112	=112
8r	8r	8r	8ee-y)
8CL	(16e-yL	(16ccL	8r
.	16d	16bn	.
8CJ	16f	16dd	8r
.	16e-yJ	16ccJ	.
8C	8g)	8ee-y)	8r
8r	8r	8r	(16ee-yL
.	.	.	16dd
8r	8r	8r	16ff
.	.	.	16ee-yJ)
=113	=113	=113	=113
8r	2.r	(4.ee-y	(4.gg
(16CL	.	.	.
16BBn	.	.	.
16D	.	.	.
16CJ	.	.	.
8E-yL)	.	4.g)	4.b-)
(16BB-	.	.	.
16AA	.	.	.
16C	.	.	.
16BB-yJ	.	.	.
=114	=114	=114	=114
8DL)	8r	4f#	4a
(16D	(16F#L	.	.
16C#	16En	.	.
16En	16G	8r	8r
16DJ	16F#yJ	.	.
8F#)	8A)	8r	8r
8r	8r	(16fL	(16aL
.	.	16en	16g
8r	8r	16g	16b-y
.	.	16fJ	16aJ
=115	=115	=115	=115
8r	8r	8a)	8cc)
(16dL	(16f#L	8r	8r
16c#	16en	.	.
16en	16g	8r	8r
16dJ	16fJ	.	.
8f#)	8a)	8r	8r
8r	8r	(16aL	(16ff#L
.	.	16g	16een
8r	8r	16b-y	16gg
.	.	16aJ	16ffJ
=116	=116	=116	=116
8r	4r	8cc)	8aaL)
(16AL	.	8r	(16cc
16G	.	.	16b-y
16B-y	8r	8r	16dd
16AJ	.	.	16ccJ
8c)	8r	8r	8ee-)
8r	(16f#L	(16aaL	8r
.	16en	16gg	.
8r	16g	16bb-y	8r
.	16fJ)	16aaJ)	.
=117	=117	=117	=117
8r	(4.a	(4.ccc	4r
(16DL	.	.	.
16C#	.	.	.
16En	.	.	8r
16DJ	.	.	.
8F#)	4.A)	4.cc)	8r
8r	.	.	(16ggL
.	.	.	16ff#
8r	.	.	16aa
.	.	.	16ggJ
=118	=118	=118	=118
8r	(4.G	(4.b-y	8bb-y)
(16GGL	.	.	8r
16FF#	.	.	.
16AA	.	.	8r
16GGJ	.	.	.
8BB-y)	4.fn	4.dd-	8r
8r	.	.	(16ggL
.	.	.	16ffn
8r	.	.	16aa-
.	.	.	16ggJ
=119	=119	=119	=119
8r	4.en	4.cc	8bb-y)
(16CL	.	.	8r
16BBn	.	.	.
16D	.	.	8r
16CJ	.	.	.
8En)	4.g)	4.b-y)	8r
8r	.	.	(16ffL
.	.	.	16een
8r	.	.	16gg
.	.	.	16ffJ
=120	=120	=120	=120
8r	(4.f	(4.a-	8aa-)
(16FFL	.	.	8r
16EEn	.	.	.
16GG	.	.	8r
16FFJ	.	.	.
8AA-)	4.c-)	4.e-y)	8r
8r	.	.	(16ffL
.	.	.	16ee-
8r	.	.	16gg-
.	.	.	16ffJ
!!LO:LB
=121	=121	=121	=121
8r	(4.B-y	(4.d	8aa-)
(16BB-L	.	.	8r
16AAn	.	.	.
16C	.	.	8r
16BB-yJ)	.	.	.
4.D	4.f)	4.a-)	8r
.	.	.	8ffL
.	.	.	8b-yJ
=122	=122	=122	=122
(4.E-y	8e-yL	16gL	(16bb-yL
.	.	16e-y	16ccc
.	8e-y	16B-y	16bb-y
.	.	16e-y	16ccc
.	8B-yJ	16g	8bb-yJ)
.	.	16e-yJ	.
4.D)	(16b-yL	16a-L	8r
.	16cc	16f	.
.	16b-y	16B-y	8ffL
.	16cc	16f	.
.	8b-yJ)	16a-y	8b-yJ
.	.	16fJ	.
=123	=123	=123	=123
(4.E-y	8r	16gL	(16bb-yL
.	.	16e-y	16ccc
.	8e-yL	16B-y	16bb-y
.	.	16e-y	16ccc
.	8B-yJ	16g	8bb-yJ)
.	.	16e-yJ	.
4.D)	(16b-yL	16a-L	8r
.	16cc	16f	.
.	16b-y	16B-y	8ffL
.	16cc	16f	.
.	8b-yJ)	16a-y	8b-yJ
.	.	16fJ	.
=124	=124	=124	=124
4E-y	(16gL	4e-y	(16bb-yL
.	16a-	.	16ccc
.	16g	.	16bb-y
.	16a-y	.	16ccc
8r	8gJ)	8r	8bb-yJ)
4r	(16e-yL	4r	(16ggL
.	16f	.	16aa-
.	16e-y	.	16gg
.	16f	.	16aa-y
8r	8e-yJ)	8r	8ggJ)
=125	=125	=125	=125
(16CL	(16cL	(16e-yL	(16ee-yL
16D	16d	16f	16ff
16C	16c	16e-y	16ee-y
16D	16d	16f	16ff
8CJ)	8cJ)	8e-yJ)	8ee-yJ)
(16AAnL	(16AnL	(16cL	(16ccL
16BB-y	16B-y	16d	16dd
16AA	16A	16c	16cc
16BB-y	16B-y	16d	16dd
8AAJ)	8AJ)	8cJ)	8ccJ)
=126	=126	=126	=126
4FF	8FL	4.An	4.an
.	8c	.	.
8r	8FJ	.	.
8r	(16fL	4.cc	4.ee-y
.	16g	.	.
8AAL	16f	.	.
.	16g	.	.
8FFJ	8fJ)	.	.
=127	=127	=127	=127
(16FL	8r	4.b-y	4.dd
16G	.	.	.
16F	8dL	.	.
16G	.	.	.
8FJ)	8B-yJ	.	.
8r	(16enL	4.gg	4.bb-y
.	16f	.	.
8BB-yL	16e	.	.
.	16f	.	.
8FFJ	8eJ)	.	.
=128	=128	=128	=128
(16FL	8r	4.ff	4.aa
16G	.	.	.
16F	8fL	.	.
16G	.	.	.
8FJ)	8cJ	.	.
8r	(16e-L	4.aa	4.ccc
.	16f	.	.
8CL	16e-y	.	.
.	16f	.	.
8FFJ	8e-yJ)	.	.
=129	=129	=129	=129
(16FL	8r	4.bb-y	4.ddd-
16G	.	.	.
16F	8d-L	.	.
16G	.	.	.
8FJ)	8B-yJ	.	.
8r	(16gL	(16b-yL	4.een
.	16a	16cc	.
8FL	16g	16b-y	.
.	16a	16cc	.
8FFJ	8gJ)	8b-yJ)	.
=130	=130	=130	=130
8F	8f	8a	8ff
8r	8r	8r	8r
8r	8r	8r	8r
4r	4r	4r	(8aL
.	.	.	8f
8r	8r	8r	8aJ)
=131	=131	=131	=131
2.r	2.r	4r	8cc
.	.	.	8r
.	.	8r	8r
.	.	(8ccL	(8aaL
.	.	8a	8ff
.	.	8ccJ)	8aaJ)
=132	=132	=132	=132
4r	4r	8ee-	8ccc
.	.	8r	8r
8r	8r	8r	8r
(8AL	(8cL	(8aaL	((8cccL
8c	8e-	8ff	8aa
8AJ)	8cJ)	8aaJ)	8cccJ)
=133	=133	=133	=133
8F	8A	8ccc	8eee-)
8r	8r	8r	8r
8r	8r	8r	8r
4r	4r	4r	4r
8r	8r	8dd	8ff
=134	=134	=134	=134
4B-y	4b-y	(8ddL	(8ffL
.	.	8b-y)	8dd)
8r	8f	8b-yJ	8ddJ
4BB-y	(8fL	(8b-yL	(8ddL
.	8d)	8f)	8b-y)
8r	8dJ	8fJ	8b-yJ
=135	=135	=135	=135
(4D	(4d	(4f	(4b-y
8BB-y)	8f)	8b-y)	8dd)
4F	4.f	4a	4cc
8D	.	8b-y	8dd
=136	=136	=136	=136
.	.	.	(<8qff
4C	8.gL	4cc	8.ee-yL)
.	16f	.	16dd
8r	8e-yJ	8r	8ccJ
(8E-yL	4e-y	4.c	(8gL
8C	.	.	8b-y
8FJ)	8c	.	8aJ)
=137	=137	=137	=137
(4D	(8B-yL	(4f	(4b-y
.	8d	.	.
8BB-y)	8fJ)	8b-y)	8dd)
4F	4f	4a	4cc
8r	8r	8dd	8ff
=138	=138	=138	=138
4B-y	4b-y	(16ddL	(16ffL
.	.	16ee-y	16gg
.	.	8dd)	8ff)
8r	8f	8b-yJ	8ddJ
4BB-y	(16fL	(16b-yL	(16ddL
.	16g	16cc	16ee-y
.	8f)	8b-y)	8dd)
8r	8dJ	8fJ	8b-yJ
=139	=139	=139	=139
(4D	(4d	(4f	(4b-y
8BB-y)	8f)	8b-y)	8dd)
4F	4.f	4a	4cc
8D	.	8b-y	8dd
=140	=140	=140	=140
.	.	.	(<8qff
4C	8.gL	4cc	8.ee-yL)
.	16f	.	16dd
8r	8e-yJ	8r	8ccJ
(8E-yL	4.e-y	4.c	(8gL
8C	.	.	8b-y
8FJ)	.	.	8aJ)
=141	=141	=141	=141
8BB-yL	(4d	8B-yL	(4b-y
8BB-y	.	(16B-y	.
.	.	16A	.
8BB-yJ	8f)	16B-y	8dd)
.	.	16AJ	.
[4.BB-y	4d	4B-y)	4b-y
.	8d	8f	8r
=142	=142	=142	=142
2.BB-y_	(4e-y	(4g	2.r
.	8d)	8f)	.
.	8.cLT	8.e-yLT	.
.	16B-y	16d	.
.	8cJ	8e-yJ	.
!!LO:LB
=143	=143	=143	=143
2.BB-y]	[4.d	(8fL	4r
.	.	8a	.
.	.	8b-yJ)	8r
.	8dL]	4.f	8r
.	(8a	.	8r
.	8b-yJ)	.	8dd
=144	=144	=144	=144
2.FF	2.f	2.a 2.c	(16ee-yL
.	.	.	16ff
.	.	.	16gg)
.	.	.	16ff
.	.	.	16ee-y
.	.	.	16ddJ
.	.	.	16ccL
.	.	.	16b-y
.	.	.	16a
.	.	.	16g
.	.	.	16f
.	.	.	16e-yJ
=145	=145	=145	=145
[4.BB-y	[4.f [4.B-y	[4.b-y [4.d	16dL
.	.	.	16e-y
.	.	.	16f
.	.	.	16g
.	.	.	(16a
.	.	.	16b-yJ)
8BB-yL]	4f] 4B-y]	4b-y] 4d]	4f
8BB-y	.	.	.
8BB-yJ	8d	8f	8r
=146	=146	=146	=146
[2.BB-y	(4e-y	(4g	2.r
.	8d)	8f)	.
.	8.cLT	8.e-yLT	.
.	16B-y	16d	.
.	8cJ	8e-yJ	.
=147	=147	=147	=147
2.BB-y]	[4.d	8fL	4r
.	.	(8a	.
.	.	8b-yJ)	8r
.	8dL]	4.f	8r
.	(8a	.	8r
.	8b-yJ)	.	8dd
=148	=148	=148	=148
(2.FF	4.a	2.cc (2.e-y	(16ee-yL
.	.	.	16dd)
.	.	.	16cc
.	.	.	16b-y
.	.	.	16a
.	.	.	(16b-yJ
.	[4.f	.	16ccL
.	.	.	16dd
.	.	.	16ee-y
.	.	.	16ff
.	.	.	16gg
.	.	.	16aaJ
=149	=149	=149	=149
8BB-y)	8f]	8b-y 8d)	8bb-y)
8r	8r	8r	16r
.	.	.	(16b-yL
8r	8r	8r	16a
.	.	.	16b-yJ)
(4.F	[4.f	4.cc (4.e-y	(16ccL
.	.	.	16dd
.	.	.	16ee-y
.	.	.	16ff
.	.	.	16gg
.	.	.	16aaJ
=150	=150	=150	=150
8B-y)	8f]	8b-y 8d)	8bb-y)
8r	8r	8r	16r
.	.	.	(16b-yL
8r	8r	8r	16a
.	.	.	16b-yJ
(4.F	[4.f	(4.cc 4.e-y	16ccL
.	.	.	16dd
.	.	.	16ee-y
.	.	.	16ff
.	.	.	16gg
.	.	.	16aaJ
=151	=151	=151	=151
8B-yL)	8fL]	8b-yL) 8d	8bb-y)
8B-y	8b-y	8bb-y	8r
8B-yJ	8b-yJ	8bb-yJ	8r
8r	8r	8r	8gg
8GL	8gL	8ggL	8r
8GJ	8gJ	8ggJ	8r
=152	=152	=152	=152
8r	8r	8r	8dd
8DL	8dL	8ddL	8r
8DJ	8dJ	8ddJ	8r
8r	8r	8r	8een
8EnL	8enL	8eenL	8r
8EJ	8eJ	8eeJ	8r
!!LO:LB
=153	=153	=153	=153
[2.F	8r	8r	[2.ff
.	(8AL	(8cL	.
.	8cJ	8e-J	.
.	8B-yL	8dL	.
.	8A	8c	.
.	8GJ)	8B-yJ)	.
=154	=154	=154	=154
2.F_	(8FL	(8AL	2.ff_
.	8A	8c	.
.	8cJ	8e-yJ	.
.	8B-yL	8dL	.
.	8A	8c	.
.	8GJ)	8B-yJ)	.
=155	=155	=155	=155
8FL]	8FL	8AL	(8ffL_
8r	8r	8r	8gg
(8CJ	(8GJ	(8B-yJ	8eenJ
8FL)	8FL)	8AL)	8ffL
8r	8r	8r	8aa
(8CJ	(8GJ	(8B-yJ	8eeJ)
=156	=156	=156	=156
8FL)	8FL)	8AL)	(8ffL
8r	8r	8r	8ccc
(8cJ	(8gJ	(8b-yJ	8eenJ
8FL)	8fL)	8aL)	8ffL
8r	8r	8r	8fff
(8cJ	(8gJ	(8b-yJ	8eeJ)
=157	=157	=157	=157
8FL)	8fL)	(8a'L)	(8ff'L
(8F'	(8c'	8a'	8ff'
8F'J	8c'J	8a'J	8ff'J
8F'L	8c'L	8a'L	8ff'L
8F'	8c'	8a'	8ff'
8F'J)	8c'J)	8a'J)	8ff'J)
=158	=158	=158	=158
4F	4c	4a	4ff
8r	8r	8r	8r
4r	4r	4r	4ff
8r	8r	8r	8r
=159	=159	=159	=159
.	.	.	(<32qeenL
.	.	.	32qff
.	.	.	32qggJ
2.r	4r	4r	2.ffT)
.	8r	8r	.
.	8r	8r	.
.	8r	8r	.
.	8d	8f	.
=160	=160	=160	=160
2.r	(8dL	(8fL	2.ff_
.	8B-y)	8d)	.
.	8B-yJ	8dJ	.
.	(8B-yL	(8dL	.
.	8D)	8B-y)	.
.	8DJ	8B-yJ	.
=161	=161	=161	=161
(4D	(4F	(4B-y	2.ff_
8BB-y)	8B-y)	8d)	.
4F	(4A	(4c	.
8r	8Bn)	8d)	.
=162	=162	=162	=162
2.r	(16cL	(16e-yL	2.ff_
.	16d	16f	.
.	8c)	8e-y)	.
.	8AJ	8cJ	.
.	(16AL	(16cL	.
.	16B-	16d	.
.	8A)	8c)	.
.	8CJ	8AJ	.
!!LO:LB
=163	=163	=163	=163
(4FF	(4C	(4A	4.ff]
8AA)	8c)	8e-y)	.
.	.	.	(<32qeenL
.	.	.	32qffJ)
4BB-y	8B-yL	4d	4f
.	8b-y	.	.
8r	8b-yJ	8gg	8bb-y
=164	=164	=164	=164
4E-y	[2.b-yT	(8ggL	(8bb-yL
.	.	8ee-y)	8gg)
8r	.	8ee-yJ	8ggJ
4r	.	(8ee-yL	(8ggL
.	.	8g)	8ee)
8r	.	8gJ	8ee-yJ
=165	=165	=165	=165
(4G	2.b-y_	(4b-y	(4ee-y
8E-y)	.	8ee-y)	8gg)
4B-y	.	(4dd	(4ff
8r	.	8een)	8gg)
=166	=166	=166	=166
2.r	2.b-y_	(16ffL	(16aa-L
.	.	16gg	16bb-y
.	.	8ff)	8aa-y)
.	.	8ddJ	8ffJ
.	.	(16ddL	(16ffL
.	.	16ee-	16gg
.	.	8dd)	8ff)
.	.	8fJ	8ddJ
=167	=167	=167	=167
(4BB-y	4.b-y]	(4f	(4dd
8D)	.	8ff)	8aa-)
.	(<32qaL	.	.
.	32qb-yJ)	.	.
4E-y	4B-y	4ee-y	4gg
(8D	(8f	(8bn	[8gg
=168	=168	=168	=168
4.C)	4.e-y)	4.cc)	8ggL]
.	.	.	16aan
.	.	.	16bbn
.	.	.	16ccc
.	.	.	16dddJ
4.c	(4e-y_	(4g	(16eee-yL
.	.	.	16ddd)
.	.	.	16ccc
.	.	.	16bb-
.	8cc)	8ee-y)	16aa
.	.	.	16ggJ
!!LO:LB
=169	=169	=169	=169
(4.A	(4.cc	(4.ee-y	(16ggL
.	.	.	16ff)
.	.	.	16gg
.	.	.	16aa
.	.	.	16bb-y
.	.	.	16cccJ
4.B-y)	4.b-y)	4.dd)	(16dddL
.	.	.	16ccc)
.	.	.	16bb-y
.	.	.	16aa
.	.	.	16gg
.	.	.	16ffJ
=170	=170	=170	=170
(4.G	(4.b-y_	(4.dd_	(16ffL
.	.	.	16ee-y)
.	.	.	16ff
.	.	.	16gg
.	.	.	16aa
.	.	.	16bb-yJ
4.A)	4.a)	4.cc)	(16cccL
.	.	.	16bb-y)
.	.	.	16aa
.	.	.	16gg
.	.	.	16ff
.	.	.	16ee-yJ
=171	=171	=171	=171
(4.F#	(4.a_	(4.cc_	(16ee-yL
.	.	.	16dd)
.	.	.	16een
.	.	.	16ff#
.	.	.	16gg
.	.	.	16aaJ
4.G)	4.g)	4.b-y)	(16bb-yL
.	.	.	16aa)
.	.	.	16gg
.	.	.	16ffn
.	.	.	16ee-
.	.	.	16ddJ
=172	=172	=172	=172
8E-y	8g	8cc	(8ccL
8r	8r	8r	(8gg
8r	8r	8r	8ffJ
(8CL	(8GL	(8gL	8ee-yL
8D	8Bn	8f	8dd
8E-yJ)	8cJ)	8e-yJ)	8ccJ))
=173	=173	=173	=173
(4.F	[4.F	(4d	(4b-y
.	.	8c)	8a)
4.AA)	(4F_	(4c_	(8aL_
.	.	.	(8g
.	8c)	8e-y)	8fJ))
=174	=174	=174	=174
4.BB-y	4.B-	(8dL	(8fL
.	.	8f	8b-y
.	.	8dJ)	8fJ)
(8DL	(8FL	(8dL	(8fL
8E-y	8G)	8c	8e-y
8EnJ)	8GJ	8B-yJ)	8dJ)
=175	=175	=175	=175
4.F	[2.F	(8B-yL	(8dL
.	.	8AJ)	8cJ)
.	.	4e-y	4g
4.AA	.	.	.
.	.	(8dL	(8fL
.	.	8cJ)	8e-yJ)
=176	=176	=176	=176
4.BB-y	4.F_	(8cL	(8e-yL
.	.	8B-yJ)	8dJ)
.	.	4d	4f
(4D	(4F_	.	.
.	.	(8cL	(8e-yL
8E-)	8G)	8B-yJ)	8dJ)
=177	=177	=177	=177
4.F	4.F	(8B-yL	(8dL
.	.	8AJ)	8cJ)
.	.	4ee-y	4gg
4.A	[4.f	.	.
.	.	(8ddL	(8ffL
.	.	8ccJ)	8ee-yJ)
=178	=178	=178	=178
4.B-y	(4f_	(8ccL	(8ee-yL
.	.	8b-yJ)	8ddJ)
.	8d)	4dd	4ff
4.G	4.B-y	.	.
.	.	8r	8ddL
.	.	8b-y	8b-yJ
=179	=179	=179	=179
4.F	4.c	4.a	(16ffL
.	.	.	16gg
.	.	.	16ff
.	.	.	16gg
.	.	.	8ffJ)
4r	4r	8r	4r
.	.	8ddL	.
8r	8r	8b-yJ	8r
!!LO:LB
=180	=180	=180	=180
2.r	4r	(16fL	2.r
.	.	16g	.
.	.	16f	.
.	.	16g	.
.	8r	8fJ)	.
.	8r	4r	.
.	8dL	.	.
.	8B-yJ	8r	.
=181	=181	=181	=181
4r	(16fL	2.r	2.r
.	16g	.	.
.	16f	.	.
.	16g	.	.
8r	8fJ)	.	.
8r	4r	.	.
8DL	.	.	.
8BB-yJ	8r	.	.
=182	=182	=182	=182
(16FFL	4r	2.r	2.r
16GG	.	.	.
16FF	.	.	.
16GG	.	.	.
8FFJ)	8r	.	.
4r	(16FL	.	.
.	16G	.	.
.	16F	.	.
.	16G	.	.
8r	8FJ)	.	.
=183	=183	=183	=183
2.r	2.r	(16fL	4r
.	.	16g	.
.	.	16f	.
.	.	16g	.
.	.	8fJ)	8r
.	.	4r	(16ffL
.	.	.	16gg
.	.	.	16ff
.	.	.	16gg
.	.	8r	8ffJ)
=184	=184	=184	=184
(4.FF	2.r	(4.A	(16e-yL
.	.	.	16f
.	.	.	16e-y
.	.	.	16f
.	.	.	8e-yJ)
4.GG-	.	4.B-y	8r
.	.	.	8e-yL
.	.	.	8e-yJ
=185	=185	=185	=185
4.FF	(16E-yL	4.c	(4b-y
.	16F	.	.
.	16E-y	.	.
.	16F	.	.
.	8E-yJ)	.	8a)
4.GG-)	8r	4.B-y)	4r
.	8E-yL	.	.
.	8E-yJ	.	8r
=186	=186	=186	=186
4.FF	(4B-y	(4.c	(16ee-yL
.	.	.	16ff
.	.	.	16ee-y
.	.	.	16ff
.	8A)	.	8ee-yJ)
(4.G-	4r	4.B-y)	8r
.	.	.	8ee-yL
.	8r	.	8ee-yJ
=187	=187	=187	=187
4.F)	(16e-yL	4.c	(4bb-y
.	16f	.	.
.	16e-y	.	.
.	16f	.	.
.	8e-yJ)	.	8aa)
.	.	.	(<32qaaL
.	.	.	32qcccJ
4.E-y	4.f	(4cc	(4eee-y)
.	.	16aL	16cccL
.	.	16ccJ)	16aaJ)
=188	=188	=188	=188
8D	8f	8b-y	(16bb-yL
.	.	.	16ccc
8r	8r	8r	16bb-y
.	.	.	16ccc
8r	8r	8r	8dddJ)
8E-y	8e-y	8b-y	(16ggL
.	.	.	16aa
8r	8r	8r	16gg
.	.	.	16aa
8r	8r	8r	8bb-yJ)
=189	=189	=189	=189
8G	8B-y	8b-y	(16ee-yL
.	.	.	16ff
8r	8r	8r	16ee-y
.	.	.	16ff
8r	8r	8r	8ggJ)
8A	8c	8f	(16ccL
.	.	.	16dd
8r	8r	8r	16cc
.	.	.	16dd
8r	8r	8r	8ee-yJ)
=190	=190	=190	=190
4.B-y	4.B-y	(8fL	(8ddL
.	.	8ee-y)	8gg)
.	.	8ddJ	8ffJ
.	.	(<8qdd	.
.	.	.	(<8qff
8E-yL	8gL	8cc'L)	8ee-yL)
8F	8f	8b-y'	8dd
8FJ	8e-yJ	8a'J	8ccJ
=191	=191	=191	=191
4BB-y	4d	4b-y	4b-y
8r	8r	8r	8r
4r	4r	8b-y'L	4r
.	.	8cc'	.
8r	8r	8dd'J	8r
=192	=192	=192	=192
(4A	(4e-y	(16fL	2.r
.	.	16g	.
.	.	16f	.
.	.	16g	.
8B-y)	8d)	8fJ)	.
4r	4r	8b-y'L	.
.	.	8cc'	.
8r	8r	8dd'J	.
=193	=193	=193	=193
(4A	(4e-y	(16fL	2.r
.	.	16g	.
.	.	16f	.
.	.	16g	.
8B-y)	8d)	8fJ)	.
4r	4r	8b-y'L	.
.	.	8cc'	.
8r	8r	8dd'J	.
=194	=194	=194	=194
(4F#	(4c	(16dL	2.r
.	.	16e-y	.
.	.	16d	.
.	.	16e-y	.
8G)	8B-y)	8dJ)	.
(4Bn	(4f	(16gL	.
.	.	16a-	.
.	.	16g	.
.	.	16a-y	.
8c)	8e-y)	8gJ)	.
=195	=195	=195	=195
(4En	(4B-y	(16ccL	2.r
.	.	16dd	.
.	.	16cc	.
.	.	16dd	.
8F)	8A)	8ccJ)	.
(4A	(4e-y	(16ffL	.
.	.	16gg	.
.	.	16ff	.
.	.	16gg	.
8B-)	8d)	8ffJ)	.
=196	=196	=196	=196
4E-	8r	8r	2.r
.	8e-y'L	8gg'L	.
8r	8d'J	8ff'J	.
.	(<8qd	.	.
.	.	(<8qff	.
4F	8c'L)	8ee-y'L)	.
.	8B-y'	8dd'	.
8r	8A'J	8cc'J	.
=197	=197	=197	=197
4BB-y	4B-y	4b-y	4r
8r	8r	8r	8r
4r	4r	4r	8bb-y'L
.	.	.	8ccc'
8r	8r	8r	8ddd'J
=198	=198	=198	=198
2.r	(4a	(4ee-y	(16ffL
.	.	.	16gg
.	.	.	16ff
.	.	.	16gg
.	8b-y)	8dd)	8ffJ)
.	4r	4r	8bb-y'L
.	.	.	8ccc'
.	8r	8r	8ddd'J
=199	=199	=199	=199
2.r	(4a	(4ee-y	(16ffL
.	.	.	16gg
.	.	.	16ff
.	.	.	16gg
.	8b-y)	8dd)	8ffJ)
.	4r	4r	8bb-y'L
.	.	.	8ccc'
.	8r	8r	8ddd'J
=200	=200	=200	=200
2.r	(4d	(4a-	(16b-yL
.	.	.	16cc
.	.	.	16b-y
.	.	.	16cc
.	8e-y)	8g)	8b-yJ)
.	(4en	(4b-y	(16ccL
.	.	.	16dd
.	.	.	16cc
.	.	.	16dd
.	8f)	8an)	8ccJ)
=201	=201	=201	=201
(4F#	(4c	(16dL	(16ddL
.	.	16e-y	16ee-y
.	.	16d	16dd
.	.	16e-y	16ee-y
8G)	8B-y)	8dJ)	8ddJ)
(4A	(4e-	(16fL	(16ffL
.	.	16g	16gg
.	.	16f	16ff
.	.	16g	16gg
8B-y)	8d)	8fJ)	8ffJ)
=202	=202	=202	=202
4E-y	8r	8r	8r
.	8e-yL	8g'L	8ggL
8r	8dJ	8f'J	8ffJ
.	(<8qd	.	.
.	.	(<8qf	.
.	.	.	(<8qff
4Fn	8c'L)	8e-yL)	8ee-y'L)
.	8B-y'	8d'	8dd'
8r	8A'J	8c'J	8cc'J
!!LO:LB
=203	=203	=203	=203
4BB-y	(16b-yL	4B-y	2.b-y
.	16cc	.	.
.	16b-y	.	.
.	16cc	.	.
8r	8ddJ)	8r	.
4r	(16gL	(16b-yL	.
.	16a	16cc	.
.	16g	16b-y	.
.	16a	16cc	.
8r	8b-yJ)	8ddJ)	.
*clefC4	*	*	*
=204	=204	=204	=204
(16e-yL	(16gL	(16ccL	2.gg
16f	16a	16dd	.
16e-y	16g	16cc	.
16f	16a	16dd	.
8gJ)	8b-yJ)	8ee-yJ)	.
(16cL	(16e-yL	(16aL	.
16d	16f	16b-y	.
16c	16e-y	16a	.
16d	16f	16b-y	.
8e-yJ)	8gJ)	8ccJ)	.
=205	=205	=205	=205
(4A	(4c	(4ee-y	(16ffL
.	.	.	16gg
.	.	.	16ff
.	.	.	16gg
8B-y)	8d)	8dd)	8ffJ)
.	.	(<8qdd	.
.	.	.	(<8qff
8E-yL	8g'L	8cc'L)	8ee-yL)
8F	8f'	8b-y'	8dd
8FJ	8e-y'J	8a'J	8ccJ
*clefF4	*	*	*
=206	=206	=206	=206
(16B-yL	(16dL	4b-y	2.b-y
16c	16e-y	.	.
16B-y	16d	.	.
16c	16e-y	.	.
8dJ)	8fJ)	8r	.
(16GL	(16B-yL	4r	.
16A	16c	.	.
16G	16B-y	.	.
16A	16c	.	.
8B-yJ)	8dJ)	8r	.
=207	=207	=207	=207
(16E-yL	(16GL	(16cL	2.gg
16F	16A	16d	.
16E-y	16G	16c	.
16F	16A	16d	.
8GJ)	8B-yJ)	8e-yJ)	.
(16CL	(16E-yL	(16AL	.
16D	16F	16B-y	.
16C	16E-y	16A	.
16D	16F	16B-y	.
8E-yJ)	8GJ)	8cJ)	.
=208	=208	=208	=208
(2.AA	(2.c	(2.e-y	(2.gg-
=209	=209	=209	=209
2.BBn)	2.d)	2.a-)	2.ff)
=210	=210	=210	=210
(2.C#	2.g	(2.b-y	(2.een
=211	=211	=211	=211
4.D	(4.a-	(4.bn)	4.ff
4.En)	4.b-y)	(4.dd-)	4.ggn)
=212	=212	=212	=212
8F	8b-y]	8ddn)	(8ffL
8r	8r	8r	8een
8r	8r	8r	8ee-J
4r	4r	4r	8ddL
.	.	.	8dd-
8r	8r	8r	8ccJ)
=213	=213	=213	=213
2.FF	(4.d	(4.f	(4.b-y
.	.	.	(<8qddn
.	4.e-y)	4.a)	4.cc))
!!LO:LB
=214	=214	=214	=214
[2.BB-y	4.d	4.b-y	[2.b-y
.	8r	8r	.
.	8r	8r	.
.	8d	8f	.
=215	=215	=215	=215
2.BB-y_	(4e-y	(4g	2.b-y_
.	8d)	8f)	.
.	8.cLT	8.e-yLT	.
.	16B-y	16d	.
.	8cJ	8e-yJ	.
=216	=216	=216	=216
4.BB-y_	(4c#	(4en	4.b-y_
.	8d)	8f)	.
(4BB-y_	(4B-y	(4d	(4b-y_
8D)	8F)	8A-)	8bn)
=217	=217	=217	=217
(4.E-y	(4.E-y	(4.G	(4cc
.	.	.	8b-)
4.F)	4.c)	4.e-y)	8.aLT
.	.	.	16g
.	.	.	8aJ
=218	=218	=218	=218
[2.B-y	4.B-y	4.d	(8b-yL
.	.	.	8dd
.	.	.	8ffJ)
.	8r	8r	[4.bb-y
.	8r	8r	.
.	8dd	8ff#	.
=219	=219	=219	=219
2.B-y_	(4ee-y	(4gg	2.bb-y_
.	8dd)	8ffn)	.
.	8.ccLT	8.ee-yLT	.
.	16b-y	16dd	.
.	8ccJ	8ee-yJ	.
=220	=220	=220	=220
(4B-y_	(4cc#	(4een	(4.bb-y_
8A-)	8dd)	8ff)	.
.	(<32qfL	.	.
.	32qgJ	.	.
.	.	(<32qddL	.
.	.	32qee-J	.
4.G	8.a-L)	8.ffL)	4.bbn)
.	16g	16ee-y	.
.	8fJ	8ddJ	.
=221	=221	=221	=221
4c	4e-y	4cc	(8cccL
.	.	.	8eee-y
8r	8r	8r	8gggJ)
4F	4e-y	4cc	(8gggL
.	.	.	8fff
8r	8r	8r	8aaJ)
=222	=222	=222	=222
4B-y	4d	4b-y	(8bb-L
.	.	.	8ddd
8r	8r	8r	8fffJ)
4G	4b-y	4dd	(8fffL
.	.	.	8eee-y
8r	8r	8r	8dddJ)
=223	=223	=223	=223
8E-y	8ee-y	8gg	8r
8r	8r	8r	(8bbnL
8r	8r	8r	8cccJ)
8F	8cc	8ee-y	8r
8r	8r	8r	(8eee-yL
8r	8r	8r	8aaJ)
=224	=224	=224	=224
8G	8b-y	8dd	8r
8r	8r	8r	(8cccL
8r	8r	8r	8bb-J)
8D	8f	8b-y	8r
8r	8r	8r	(8ffL
8r	8r	8r	8ddJ)
=225	=225	=225	=225
8E-y	8e-y	8g	8r
8r	8r	8r	(8bnL
8r	8r	8r	8ccJ)
8F	8A	8e-y	8r
8r	8r	8r	(8ee-yL
8r	8r	8r	8ccJ)
=226	=226	=226	=226
4DD	4F	4A-	4bn
8r	8r	8r	8r
4D	4f	4bn	4aa-
8r	8r	8r	8r
=227	=227	=227	=227
!!Error: measure 233, staff 2 is underfilled: adding token 4ryy at end of measure to complete its duration.
4D	4f	8r	4aa-
.	.	4r	.
8r	8r	.	8r
4r	4r	8r	4r
.	.	4ryy	.
8r	8r	.	8r
=228	=228	=228	=228
2.r	2.r	2.r	(2.ff#
=229	=229	=229	=229
2.r	2.r	2.r	2.gg)
=230	=230	=230	=230
!!Error: measure 236, staff 2 is underfilled: adding token 2.ryy at end of measure to complete its duration.
2.r	(2.e-y	2.ryy	[(2.cc
=231	=231	=231	=231
!!Error: measure 237, staff 2 is underfilled: adding token 2.ryy at end of measure to complete its duration.
2.r	2.en)	2.ryy	4.cc]
.	.	.	(4dd-
.	.	.	8cc))
=232	=232	=232	=232
[2.FF	4f	4a	4cc
.	8r	8r	8r
.	4r	4r	8r
.	.	.	8r
.	8r	8r	8ff
!!LO:LB
=233	=233	=233	=233
2.FF_	2.r	8r	(8ffL
.	.	8r	8ddn)
.	.	8b-y	8ddJ
.	.	(8b-yL	(8ddL
.	.	8g)	8b-y)
.	.	8gJ	8b-yJ
=234	=234	=234	=234
!!Error: measure 240, staff 3 is underfilled: adding token 4.ryy at end of measure to complete its duration.
2.FF_	8r	(8gL	(4b-y
.	8FL	8e-y)	.
.	8FJ	8e-yJ	8gg)
.	4.ryy	(4e-y	(4gg
.	.	8cc)	8ee-y)
=235	=235	=235	=235
2.FF_	[2.F	(4cc	(8ee-yL
.	.	.	8cc)
.	.	8a)	8ccJ
.	.	(8aL	(8ccL
.	.	8f)	8a)
.	.	8fJ	8aJ
=236	=236	=236	=236
!!Error: measure 242, staff 3 is underfilled: adding token 4.ryy at end of measure to complete its duration.
2.FF_	8FL]	(8fL	(4a
.	8F	8d)	.
.	8FJ	8dJ	8ff)
.	4.ryy	(4d	(4ff
.	.	8b-y)	8dd)
=237	=237	=237	=237
2.FF_	[2.F	(4b-y	(8ddL
.	.	.	8b-y)
.	.	8g)	8b-yJ
.	.	(8gL	(8b-yL
.	.	8e-y)	8g)
.	.	8e-yJ	8gJ
=238	=238	=238	=238
2.FF_	4.F]	8e-yL	8gL
.	.	8c	8ee-y
.	.	8e-yJ	8ccJ
.	[4.F	8fL	8aL
.	.	8d	8ff
.	.	8fJ	8ddJ
=239	=239	=239	=239
4.FF_	4.F]	8gL	8b-yL
.	.	8e-y	8gg
.	.	8gJ	8ee-yJ
4FF]	[4.F	8aL	8ccL
.	.	8f	8ff
8F	.	8aJ	8ee-yJ
=240	=240	=240	=240
(8FL	4F]	4b-y	4dd
8D)	.	.	.
8DJ	8f	8r	8r
(8DL	(8fL	8r	4r
8BB-y)	8d)	8r	.
8BB-yJ	8dJ	8b-y	8r
=241	=241	=241	=241
(4BB-y	(8dL	(8b-yL	8r
.	8B-y)	8g)	8r
8E-y)	8B-yJ	8gJ	8bb-y
4E-y	(4B-y	(8gL	(8bb-yL
.	.	8e-y)	8gg)
8E-y	8b-y)	8e-yJ	8ggJ
=242	=242	=242	=242
(8E-yL	(8b-yL	(4e-y	(8ggL
8C)	8cc)	.	8ee-y)
8CJ	8ccJ	8g)	8ee-yJ
(8CL	4cc	(8gL	(4ee-y
8AA)	.	8a)	.
8AAJ	8r	8aJ	8ccc)
=243	=243	=243	=243
(4AA	4r	(8aL	4ccc
.	.	8f)	.
8D)	8r	8fJ	8aa
4D	8r	(8fL	(8aaL
.	8aL	8d)	8ff)
8D	8aJ	8dJ	8ffJ
=244	=244	=244	=244
(8DL	(8aL	(4d	(8ffL
8BB-y)	8b-y)	.	8dd)
8BB-yJ	8b-yJ	8f)	8ddJ
(8BB-yL	4b-y	(8fL	(4dd
8GG)	.	8g)	.
8GGJ	8r	8gJ	8bb-y)
=245	=245	=245	=245
(4GG	4r	(8gL	4bb-y
.	.	8e-y)	.
8C)	8r	8e-yJ	8gg
4C	8r	4e-y	(8ggL
.	8cL	.	8ee-y)
8C	8cJ	8e-y	8ee-yJ
=246	=246	=246	=246
(8CL	(8cL	(8e-yL	(8ee-yL
8AA)	8A)	8c)	8cc)
8AAJ	8AJ	8cJ	8ccJ
(8AAL	(8AL	(8cL	(8ccL
8FF)	8F)	8A)	8a)
8FFJ	8FJ	8AJ	8aJ
!!LO:LB
=247	=247	=247	=247
4E-y	4c	4g-	4aa
8r	8r	8r	8r
4En	4d-	4gn	4bb-y
8r	8r	8r	8r
=248	=248	=248	=248
2.r	4r	[4.b-y	[4.dd
.	8r	.	.
.	[4.dn	(8b-yL_	(8ddL_
.	.	8cc	8ee-y
.	.	8cc#J)	8eenJ)
=249	=249	=249	=249
2.F	(8dL_	[4.dd	[4.ff
.	8e-y	.	.
.	8enJ)	.	.
.	(4f	(8ddL_	(8ffL_
.	.	8ccn	8ee-
.	8e-)	8aJ)	8ccJ)
=250	=250	=250	=250
!!Error: measure 256, staff 3 is underfilled: adding token 4ryy at end of measure to complete its duration.
4BB-y	4d	8b-yL	8b-yL
.	.	8d	8dd
8r	8r	8B-yJ	8b-yJ
4AA	8r	(16fL	(16ffL
.	.	16g	16gg
.	4ryy	16f	16ff
.	.	16g	16gg
8r	.	8fJ)	8ffJ)
=251	=251	=251	=251
!!Error: measure 257, staff 3 is underfilled: adding token 2ryy at end of measure to complete its duration.
!!Error: measure 257, staff 2 is underfilled: adding token 2.ryy at end of measure to complete its duration.
4BB-y	8r	2.ryy	8r
.	8r	.	8bb-yL
8r	2ryy	.	8dddJ
4AA	.	.	(16ffL
.	.	.	16gg
.	.	.	16ff
.	.	.	16gg
8r	.	.	8ffJ)
=252	=252	=252	=252
!!Error: measure 258, staff 3 is underfilled: adding token 12...ryy at end of measure to complete its duration.
!!Error: measure 258, staff 2 is underfilled: adding token 2.ryy at end of measure to complete its duration.
4BB-y	8r	2.ryy	8r
.	12...ryy	.	8ddL
8r	.	.	8b-yJ
8AL	.	.	(16ffL
.	.	.	16gg
8A	.	.	16ff
.	.	.	16gg
8AJ	.	.	8ffJ)
!!LO:LB
=253	=253	=253	=253
!!Error: measure 259, staff 3 is underfilled: adding token 12...ryy at end of measure to complete its duration.
!!Error: measure 259, staff 2 is underfilled: adding token 2.ryy at end of measure to complete its duration.
4B-y	8r	2.ryy	8r
.	12...ryy	.	8bb-yL
8r	.	.	8dddJ
8AL	.	.	(16ffL
.	.	.	16gg
8A	.	.	16ff
.	.	.	16gg
8AJ	.	.	8ffJ)
=254	=254	=254	=254
!!Error: measure 260, staff 2 is underfilled: adding token 8ryy at end of measure to complete its duration.
(16B-yL	(16dL	8dd 8f	8ff 8b-y
16c	16e-y	.	.
16B-y	16d	8r	8r
16c	16e-y	.	.
8dJ)	8fJ)	8r	8r
(16GL	(16B-yL	8r	8bb-y 8dd
16A	16c	.	.
16G	16B-y	8r	8r
16A	16c	.	.
8B-yJ)	8dJ)	8ryy	8r
=255	=255	=255	=255
8E-y	8G	8r	8r
8r	8r	(8ee-yL	(8ggL
8r	8r	8ccJ)	8ee-yJ)
8F	8A	8r	8r
8r	8r	(8e-yL	(8ccL
8r	8r	8cJ)	8aJ)
=256	=256	=256	=256
(4.D	4r	4.f	8b-yL
.	.	.	8dd
.	8r	.	8b-yJ
4.E-y)	8r	4.a (4.c	(16ffL
.	.	.	16gg
.	8cL	.	16ff
.	.	.	16gg
.	8FJ	.	8ffJ)
=257	=257	=257	=257
!!Error: measure 263, staff 2 is underfilled: adding token 4.ryy at end of measure to complete its duration.
(4.D	(16fL	4.b-y 4.d	8r
.	16g	.	.
.	16f	.	8bb-yL
.	16g	.	.
.	8fJ)	.	8dddJ
4.E-y)	8r	4.ryy	(16ffL
.	.	.	16gg
.	8aL	.	16ff
.	.	.	16gg
.	8ccJ	.	8ffJ)
=258	=258	=258	=258
!!Error: measure 264, staff 4 is underfilled: adding token 2.ryy at end of measure to complete its duration.
!!Error: measure 264, staff 2 is underfilled: adding token 2.ryy at end of measure to complete its duration.
2.ryy	(16fL	2.ryy	8r
.	16g	.	.
.	16f	.	8ddL
.	16g	.	.
.	8fJ)	.	8b-yJ
.	8r	.	(16ffL
.	.	.	16gg
.	8cL	.	16ff
.	.	.	16gg
.	8FJ	.	8ffJ)
=259	=259	=259	=259
!!Error: measure 265, staff 2 is underfilled: adding token 2.ryy at end of measure to complete its duration.
8DL	(16fL	2.ryy	8r
.	16g	.	.
8D	16f	.	8bb-yL
.	16g	.	.
8DJ	8fJ)	.	8dddJ
8E-yL	8r	.	(16ffL
.	.	.	16gg
8E-y	8aL	.	16ff
.	.	.	16gg
8E-yJ	8ccJ	.	8ffJ)
=260	=260	=260	=260
8D	8f	(16b-yL	(16bb-yL
.	.	16cc	16ccc
8r	8r	16b-y	16bb-y
.	.	16cc	16ccc
8r	8r	8ddJ)	8dddJ)
8E-y	8e-y	(16gL	(16ggL
.	.	16a	16aa
8r	8r	16g	16gg
.	.	16a	16aa
8r	8r	8b-yJ)	8bb-yJ)
=261	=261	=261	=261
8F	(16B-yL	(16dL	(8ffL
.	16c	16e-y	.
8r	16B-y	16d	8ddJ)
.	16c	16e-y	.
8r	8dJ)	8fJ)	8r
8FF	(16AL	(16cL	(8ee-yL
.	16B-y	16d	.
8r	16A	16c	8ccJ)
.	16B-y	16d	.
8r	8cJ)	8e-yJ)	8r
=262	=262	=262	=262
!!Error: measure 268, staff 4 is underfilled: adding token 2.ryy at end of measure to complete its duration.
!!Error: measure 268, staff 3 is underfilled: adding token 2.ryy at end of measure to complete its duration.
!!Error: measure 268, staff 2 is underfilled: adding token 2.ryy at end of measure to complete its duration.
2.ryy	2.ryy	2.ryy	2.r
=263	=263	=263	=263
!!Error: measure 269, staff 4 is underfilled: adding token 2.ryy at end of measure to complete its duration.
!!Error: measure 269, staff 3 is underfilled: adding token 2.ryy at end of measure to complete its duration.
!!Error: measure 269, staff 2 is underfilled: adding token 2.ryy at end of measure to complete its duration.
2.ryy	2.ryy	2.ryy	4r
.	.	.	8r
.	.	.	8r
.	.	.	8r
.	.	.	8ff
=264	=264	=264	=264
4BB-y	4B-y	4b-y 4d	(8ffL
.	.	.	8dd)
8B-y	8r	8r	8ddJ
(8B-yL	8r	8r	(8ddL
8G)	8r	8r	8b-y)
8GJ	8g	8d	8b-yJ
=265	=265	=265	=265
(4G	(4g	(4d	(4b-y
8F)	8Bn)	8a-)	8dd)
4E-y	(4c	(4g	4cc
8D	8f)	8bn)	8dd
=266	=266	=266	=266
.	.	.	(<8qff
4C	4g	4cc	8.ee-yL)
.	.	.	16dd
8r	8r	8r	8ccJ
4r	4r	4r	(8ff#L
.	.	.	8gg
8r	8r	8r	16ee-y
.	.	.	16ccJ)
=267	=267	=267	=267
8FL	8fL	(16dL	[4.b-y
.	.	16f	.
8F	8f	16d	.
.	.	16f	.
8FJ	8fJ	16d	.
.	.	16fJ	.
8FL	8fL	16dL	(4b-y_
.	.	16f	.
8F	8f	16d	.
.	.	16f	.
.	.	.	(<8qdd
8FJ	8aJ	16e-y	8cc))
.	.	16fJ)	.
!!LO:LB
=268	=268	=268	=268
8BB-yL	8b-yL	8dL	4b-y
8B-y	8d	8f	.
8B-yJ	8dJ	8fJ	8r
8B-y	8d	8f	8r
8r	8r	8r	(16ddL
.	.	.	16cc
8r	8r	8r	16ee-y
.	.	.	16ddJ)
=269	=269	=269	=269
!!Error: measure 275, staff 3 is underfilled: adding token 4.ryy at end of measure to complete its duration.
!!Error: measure 275, staff 2 is underfilled: adding token 4.ryy at end of measure to complete its duration.
8r	8r	8r	8ff
8FL	8r	8r	8r
8FJ	8r	8r	8r
8F	4.ryy	4.ryy	8r
8r	.	.	(16aaL
.	.	.	16bb-y
8r	.	.	16ccc
.	.	.	16aaJ)
=270	=270	=270	=270
8r	8r	8r	8bb-y
8BB-yL	(16B-yL	(16dL	8r
.	16A	16c	.
8BB-yJ	16c	16e-y	8r
.	16B-yJ)	16dJ)	.
8BB-y	8d	8f	8r
8r	8r	8r	(16ddL
.	.	.	16cc
8r	8r	8r	16ee-y
.	.	.	16ddJ)
=271	=271	=271	=271
8r	8r	8r	8ff
8FFL	(16AL	(16cL	8r
.	16G	16B-y	.
8FFJ	16B-y	16d	8r
.	16AJ)	16cJ)	.
8FF	8cL	8e-yL	8r
8r	8f	((16cc	(16aaL
.	.	16dd	16bb-y
8r	8fJ	16ee-y	16ccc
.	.	16ccJ))	16aaJ)
=272	=272	=272	=272
4r	4B-y	4dd	4bb-y
8r	8r	8r	8r
4B-y	4b-y	4dd 4f 4B-y	4bb-y 4b-y 4d
8r	8r	8r	8r
=273	=273	=273	=273
4BB-y	4B-y	4B-y	4B-y
8r	8r	8r	8r
4r	4r	4r	4r
8r	8r	8r	8r
==	==	==	==
*-	*-	*-	*-
!!!RDF**kern: < = below
